!!!!SEGMENT: Mou2008-Peccata_mea.krn
!!!id: Mou2008
!!!AGN: Motet
!!!SCT: Lowinsky (1968)
!!!voices: 5
!!!COM: Jean Mouton
!!!OTL: Peccata mea
**kern	**kern	**kern	**kern	**kern
*part5	*part4	*part3	*part2	*part1
*staff5	*staff4	*staff3	*staff2	*staff1
*I"Bassus	*I"Tenor II	*I"Tenor I	*I"Altus	*I"Superius
*I'B	*I'T. II	*I'T. I	*I'A	*I'S
*clefF4	*clefF4	*clefF4	*clefGv2	*clefGv2
*k[b-e-]	*k[b-e-]	*k[b-e-]	*k[b-e-]	*k[b-e-]
*B-:	*B-:	*B-:	*B-:	*B-:
*M2/1	*M2/1	*M2/1	*M2/1	*M2/1
*met(C|)	*met(C)	*met(C|)	*met(C)	*met(C|)
!!section: Prima pars: Peccata mea
!!!OMD: Prima pars: Peccata mea
=1	=1	=1	=1	=1
!	!LO:TX:a:t=Canon&colon; tenor II/altus at the seventh	!	!	!
0r	0r	0F	0r	0r
=2	=2	=2	=2	=2
0r	0r	1E-y	0r	0r
.	.	1F	.	.
=3	=3	=3	=3	=3
0r	0r	0A-X	0r	0c
=4	=4	=4	=4	=4
0r	0r	1G	0r	1B-y
.	.	[1E-y	.	1c
=5	=5	=5	=5	=5
0C	0r	2E-]	0r	0e-y
.	.	2F	.	.
.	.	1G	.	.
=6	=6	=6	=6	=6
1BB-y	0r	1r	0r	1d
1C	.	[1E-y	.	1r
=7	=7	=7	=7	=7
0E-y	0r	2E-]	0r	1.B-y
.	.	2F	.	.
.	.	1G	.	.
.	.	.	.	2c
=8	=8	=8	=8	=8
1D	0r	1r	0r	2.d
.	.	.	.	4c
[1BB-y	.	1D	.	4d
.	.	.	.	4e-y
.	.	.	.	[2f
=9	=9	=9	=9	=9
1BB-]	0r	1.G	0r	2f]
.	.	.	.	4e-y
.	.	.	.	4d
1C	.	.	.	1e-y
.	.	2G	.	.
=10	=10	=10	=10	=10
0D	0r	1F	0r	1d
.	.	2D	.	2r
.	.	2F	.	2A
=11	=11	=11	=11	=11
1r	0r	2G	0r	1.d
.	.	2.B-y	.	.
1GG	.	.	.	.
.	.	4A	.	.
.	.	4G	.	2d
.	.	4F	.	.
=12	=12	=12	=12	=12
0C	1r	1E-y	0r	2c
.	.	.	.	2B-y
.	[1C	2r	.	2A
.	.	[2E-y	.	[2G
=13	=13	=13	=13	=13
1AA	1C]	2E-]	1r	2G]
.	.	4D	.	2F#i
.	.	4C	.	.
1GG	1BB-y	2D	[1B-y	1G
.	.	2E-y	.	.
=14	=14	=14	=14	=14
1FF	1C	2F	1B-]	0c
.	.	4E-y	.	.
.	.	4D	.	.
1r	[1E-y	1C	1A	.
=15	=15	=15	=15	=15
1EE-y	1E-]	1G	1B-y	1r
2.BB-y	1D	2r	[1d	[1B-y
.	.	2D	.	.
4AA	.	.	.	.
=16	=16	=16	=16	=16
1GG	1BB-y	1.G	1d]	2B-]
.	.	.	.	4c
.	.	.	.	4d
1CC	1C	.	1c	1e-y
.	.	2G	.	.
=17	=17	=17	=17	=17
1r	0D	1F	1A	2d
.	.	.	.	2d
1GG	.	1D	1B-y	[1g
=18	=18	=18	=18	=18
1.C	0r	2.E-y	0c	2g]
.	.	.	.	2g
.	.	4F	.	.
.	.	4G	.	1e-y
.	.	4A-i	.	.
2C	.	[2G	.	.
=19	=19	=19	=19	=19
1AA	1C	4G]	0r	1c
.	.	4E-y	.	.
.	.	2F	.	.
1GG	[1G	1BB-y	.	[1d
=20	=20	=20	=20	=20
1GG	2G]	1.D	1B-y	2d]
.	2G	.	.	2c
[1BB-y	1F	.	[1f	2B-y
.	.	2E-y	.	4A
.	.	.	.	4G
=21	=21	=21	=21	=21
2BB-]	1D	2F	2f]	2F
2BB-y	.	2D	2f	1B-y
1C	1r	[1G	1e-y	.
.	.	.	.	4A
.	.	.	.	4G
=22	=22	=22	=22	=22
1C	1E-y	2G]	1c	1A
.	.	4F	.	.
.	.	4E-y	.	.
[1BB-y	[1D	2F	1r	1B-y
.	.	2G	.	.
=23	=23	=23	=23	=23
1BB-]	2D]	1F	1d	2r
.	2BB-y	.	.	2B-y
1r	1C	2r	[1c	2A
.	.	2C	.	[2G
=24	=24	=24	=24	=24
0r	1AA	2E-y	2c]	2G]
.	.	2F	2A	2F
.	[1GG	1G	1B-y	2E-y
.	.	.	.	4D
.	.	.	.	4C
=25	=25	=25	=25	=25
1GG	1GG]	0B-y	1G	2D
.	.	.	.	2E-y
[1BB-y	1r	.	[1F	[1D
=26	=26	=26	=26	=26
2BB-]	0r	1B-y	1F]	2D]
2C	.	.	.	2E-y
1D	.	1A	1r	1F
=27	=27	=27	=27	=27
1.E-y	0r	1.G	0r	2r
.	.	.	.	2G
.	.	.	.	2B-y
2E-y	.	2G	.	2c
=28	=28	=28	=28	=28
1D	0r	2F	0r	1d
.	.	1B-y	.	.
[1C	.	.	.	[1e-y
.	.	2A	.	.
=29	=29	=29	=29	=29
2C]	0r	2G	0r	2e-]
2C	.	4F	.	2e-y
.	.	4E-y	.	.
2BB-y	.	2F	.	1d
4AA	.	2G	.	.
4GG	.	.	.	.
=30	=30	=30	=30	=30
2.FF	0r	2.A-i	0r	1.f
4GG	.	4G	.	.
2AA	.	2F	.	.
2BB-y	.	4E-y	.	2f
.	.	4D	.	.
=31	=31	=31	=31	=31
2C	0r	2C	0r	2e-y
2GG	.	1G	.	2d
1AA	.	.	.	1c
.	.	2F#i	.	.
=32	=32	=32	=32	=32
0GG	1GG	1.G	0r	1B-y
.	[1BB-y	.	.	[1d
.	.	4F	.	.
.	.	4E-y	.	.
=33	=33	=33	=33	=33
1r	1BB-]	2D	1F	2d]
.	.	2BB-y	.	2d
[1FF	1C	[1F	[1A	2.c
.	.	.	.	4B-y
=34	=34	=34	=34	=34
1FF]	0D	2F]	1A]	1A
.	.	2E-y	.	.
1GG	.	2D	1B-y	1G
.	.	[2G	.	.
=35	=35	=35	=35	=35
1CC	1.E-y	4G]	0c	2r
.	.	4F	.	.
.	.	4E-y	.	1G
.	.	4D	.	.
1C	.	2C	.	.
.	2E-y	[2G	.	2G
=36	=36	=36	=36	=36
1.BB-y	1D	2G]	1.d	0B-y
.	.	2F	.	.
.	[1F	2.D	.	.
2BB-y	.	.	2d	.
.	.	4E-y	.	.
=37	=37	=37	=37	=37
1FF	2F]	2F	1c	1A
.	2F	2.C	.	.
2r	2.E-y	.	[1e-y	[1G
.	.	4D	.	.
2CC	.	4E-y	.	.
.	4D	4F	.	.
=38	=38	=38	=38	=38
4CC	1C	1.G	2e-]	1G]
4DD	.	.	.	.
4EE-y	.	.	2e-y	.
4FF	.	.	.	.
4GG	[1BB-y	.	2.d	1r
4FF	.	.	.	.
[2GG	.	4F	.	.
.	.	4E-y	4c	.
=39	=39	=39	=39	=39
4GG]	1BB-]	1D	1B-y	1g
4AA	.	.	.	.
4BB-y	.	.	.	.
4C	.	.	.	.
2D	1r	2r	[1A	2f
2C	.	[2G	.	2e-y
=40	=40	=40	=40	=40
1D	1r	2G]	1A]	2.d
.	.	2F	.	.
.	.	.	.	4c
1GG	[1G	2D	1r	2B-y
.	.	[2E-y	.	4A
.	.	.	.	4G
=41	=41	=41	=41	=41
1E-y	1G]	4E-]	1r	2B-y
.	.	4D	.	.
.	.	2C	.	2c
[1D	1F	1r	[1f	1A
=42	=42	=42	=42	=42
2D]	1D	1r	1f]	1d
2BB-y	.	.	.	.
1C	1r	2r	1e-y	[1c
.	.	[2G	.	.
=43	=43	=43	=43	=43
1AA	1r	2G]	1c	2c]
.	.	2F	.	2A
1GG	[1G	2D	1r	[1B-y
.	.	[2E-y	.	.
=44	=44	=44	=44	=44
1E-y	1G]	4E-]	1r	2B-]
.	.	4D	.	.
.	.	2C	.	2c
[1D	1F	2r	[1f	[1d
.	.	2BB-y	.	.
=45	=45	=45	=45	=45
2D]	1D	2.F	1f]	1d]
2BB-y	.	.	.	.
.	.	4G	.	.
1C	[1E-y	2A	1e-y	1r
.	.	[2G	.	.
=46	=46	=46	=46	=46
1AA	2E-]	4G]	1c	1r
.	.	4E-y	.	.
.	4D	2F	.	.
.	4C	.	.	.
1GG	2.BB-y	1D	[1d	1g
.	4C	.	.	.
=47	=47	=47	=47	=47
0r	0D	1BB-y	2d]	1.f
.	.	.	4c	.
.	.	.	4B-y	.
.	.	1F	2.A	.
.	.	.	.	2d
.	.	.	4B-y	.
=48	=48	=48	=48	=48
1CC	1GG	1G	0c	2.e-y
.	.	.	.	4d
[1FF	1r	[1A	.	1c
=49	=49	=49	=49	=49
2FF]	0r	2A]	1F	1c
2GG	.	2G	.	.
2AA	.	2F	1r	1r
4GG	.	2E-y	.	.
4AA	.	.	.	.
=50	=50	=50	=50	=50
2BB-y	0r	2.G	0r	0r
2.GG	.	.	.	.
.	.	4F	.	.
.	.	4E-y	.	.
4FF	.	4D	.	.
2DD	.	[2D	.	.
=51	=51	=51	=51	=51
1EE-y	1r	2D]	0r	1g
.	.	2C	.	.
1DD	1AA	[1D	.	[1f
=52	=52	=52	=52	=52
1r	1.BB-y	2D]	1r	2f]
.	.	4C	.	2d
.	.	4BB-y	.	.
1GG	.	2D	1G	1g
.	2BB-y	2E-y	.	.
=53	=53	=53	=53	=53
1.FF	1C	1F	1.A	1c
.	1D	1F	.	2r
2DD	.	.	2A	2f
=54	=54	=54	=54	=54
1GG	2r	2D	1B-y	2.g
.	2BB-y	2D	.	.
.	.	.	.	4f
1CC	1E-y	[1G	1c	2e-y
.	.	.	.	4d
.	.	.	.	4c
=55	=55	=55	=55	=55
2GG	2D	2G]	2r	2B-y
2AA	2C	4F	2A	2c
.	.	4E-y	.	.
1BB-y	1F	1D	1d	2F
.	.	.	.	2B-y
=56	=56	=56	=56	=56
2C	1E-y	2E-y	2c	2A
1E-y	.	1G	2B-y	2.B-y
.	1C	.	1e-y	.
.	.	.	.	4G
4D	.	4F	.	2A
4C	.	4E-y	.	.
=57	=57	=57	=57	=57
1BB-y	0r	1F	1d	1B-y
1EE-y	.	2.E-y	1B-y	[1G
.	.	4D	.	.
=58	=58	=58	=58	=58
1GG	0r	4E-y	0r	1G]
.	.	4D	.	.
.	.	4C	.	.
.	.	4BB-y	.	.
2FF	.	2C	.	1r
2DD	.	[2D	.	.
=59	=59	=59	=59	=59
1EE-y	1r	2D]	0r	1g
.	.	2C	.	.
1DD	1AA	[1D	.	[1f
=60	=60	=60	=60	=60
1r	1.BB-y	2D]	1r	2f]
.	.	4C	.	2d
.	.	4BB-y	.	.
1GG	.	2D	1G	1g
.	2BB-y	2E-y	.	.
=61	=61	=61	=61	=61
1.FF	1C	1F	1.A	1c
.	1D	1F	.	2r
2DD	.	.	2A	2f
=62	=62	=62	=62	=62
1GG	2r	2D	1B-y	2.g
.	2BB-y	2D	.	.
.	.	.	.	4f
1CC	1E-y	[1G	1c	2e-y
.	.	.	.	4d
.	.	.	.	4c
=63	=63	=63	=63	=63
2GG	2D	2G]	2r	2B-y
2AA	2C	4F	2A	2c
.	.	4E-y	.	.
1BB-y	1F	1D	1d	2F
.	.	.	.	2B-y
=64	=64	=64	=64	=64
2C	2E-y	2r	2c	2A
1GG	1D	1G	2B-y	1B-y
.	.	.	1e-y	.
2AA	2C	4F	.	2c
.	.	4E-y	.	.
=65	=65	=65	=65	=65
2BB-y	2D	1.G	2d	2B-y
2C	2E-y	.	1c	2G
1GG	1D	.	.	1d
.	.	2F	2B-y	.
=66	=66	=66	=66	=66
1.C	[0Cl	2E-y	[0cl	0G
.	.	2C	.	.
.	.	[1E-y	.	.
2BB-y	.	.	.	.
=67	=67	=67	=67	=67
2AA-X	0C_	2E-]	0c_	1r
2FF	.	2D	.	.
[1AA-i	.	1C	.	[1c
=68	=68	=68	=68	=68
2AA-]	0C_	0F	0c_	2c]
2GG	.	.	.	2B-y
1FF	.	.	.	1A
=69	=69	=69	=69	=69
00CCl	00C]	00E-yl	00c]	00Gl
==	==	==	==	==
*-	*-	*-	*-	*-
!!!system-decoration: [*]
!!!RDF**kern: i = editorial accidental
!!!RDF**kern: l = terminal long
!!!ENC: Benjamin Ory
!!!END: 2021/4/20
!!!EED: Benjamin Ory
!!!EEV: 2021/05/02
!!!YEC: Copyright 2021 Benjamin Ory, All Rights Reserved
!!!ONB: Translated from MusicXML on 2021/05/02
